src/assets/outline/RulerOpen.svg

<svg width="24" height="24" viewBox="0 0 24 24"  xmlns="http://www.w3.org/2000/svg">
<path d="M18.4702 22.75H14.4702C12.0502 22.75 10.7202 21.42 10.7202 19V5C10.7202 2.58 12.0502 1.25 14.4702 1.25H18.4702C20.8902 1.25 22.2202 2.58 22.2202 5V19C22.2202 21.42 20.8802 22.75 18.4702 22.75ZM14.4702 2.75C12.8902 2.75 12.2202 3.42 12.2202 5V19C12.2202 20.58 12.8902 21.25 14.4702 21.25H18.4702C20.0502 21.25 20.7202 20.58 20.7202 19V5C20.7202 3.42 20.0502 2.75 18.4702 2.75H14.4702Z" />
<path d="M16.4702 6.75H11.4702C11.0602 6.75 10.7202 6.41 10.7202 6C10.7202 5.59 11.0602 5.25 11.4702 5.25H16.4702C16.8802 5.25 17.2202 5.59 17.2202 6C17.2202 6.41 16.8802 6.75 16.4702 6.75Z" />
<path d="M15.4702 18.75H11.4702C11.0602 18.75 10.7202 18.41 10.7202 18C10.7202 17.59 11.0602 17.25 11.4702 17.25H15.4702C15.8802 17.25 16.2202 17.59 16.2202 18C16.2202 18.41 15.8802 18.75 15.4702 18.75Z" />
<path d="M16.4699 14.7502C16.4599 14.7502 16.4599 14.7502 16.4699 14.7502L11.4599 14.7002C11.0499 14.7002 10.7099 14.3602 10.7199 13.9402C10.7199 13.5302 11.0599 13.2002 11.4699 13.2002C11.4699 13.2002 11.4699 13.2002 11.4799 13.2002L16.4799 13.2502C16.8899 13.2502 17.2299 13.5902 17.2199 14.0102C17.2099 14.4202 16.8799 14.7502 16.4699 14.7502Z" />
<path d="M14.4702 10.75H11.4702C11.0602 10.75 10.7202 10.41 10.7202 10C10.7202 9.59 11.0602 9.25 11.4702 9.25H14.4702C14.8802 9.25 15.2202 9.59 15.2202 10C15.2202 10.41 14.8802 10.75 14.4702 10.75Z" />
<path d="M5.48978 22.72C4.57978 22.72 3.71979 22.16 3.12979 21.18L2.30979 19.82C2.00979 19.32 1.77979 18.5 1.77979 17.92V4.95C1.77979 2.91 3.43979 1.25 5.47979 1.25C7.51978 1.25 9.17979 2.91 9.17979 4.95V17.91C9.17979 18.49 8.94979 19.31 8.64979 19.81L7.82979 21.17C7.25979 22.16 6.39979 22.72 5.48978 22.72ZM5.48978 2.75C4.27978 2.75 3.28979 3.74 3.28979 4.95V17.91C3.28979 18.22 3.43979 18.77 3.59979 19.04L4.41979 20.4C4.72979 20.92 5.11978 21.21 5.48978 21.21C5.85979 21.21 6.24978 20.91 6.55978 20.4L7.37979 19.04C7.53979 18.77 7.68979 18.22 7.68979 17.91V4.95C7.68979 3.74 6.69979 2.75 5.48978 2.75Z" />
<path d="M8.43979 7.75H2.52979C2.11979 7.75 1.77979 7.41 1.77979 7C1.77979 6.59 2.11979 6.25 2.52979 6.25H8.43979C8.84978 6.25 9.18979 6.59 9.18979 7C9.18979 7.41 8.84978 7.75 8.43979 7.75Z" />
</svg>

<?xml version="1.0" encoding="UTF-8"?>
<svg width="24" height="24" viewBox="0 0 24 24" xmlns="http://www.w3.org/2000/svg">
 <path d="m18.47 22.75h-4c-2.42 0-3.75-1.33-3.75-3.75v-14c0-2.42 1.33-3.75 3.75-3.75h4c2.42 0 3.75 1.33 3.75 3.75v14c0 2.42-1.34 3.75-3.75 3.75zm-4-20c-1.58 0-2.25 0.67-2.25 2.25v14c0 1.58 0.67 2.25 2.25 2.25h4c1.58 0 2.25-0.67 2.25-2.25v-14c0-1.58-0.67-2.25-2.25-2.25h-4z"/>
 <path d="m16.47 6.75h-5c-0.41 0-0.75-0.34-0.75-0.75s0.34-0.75 0.75-0.75h5c0.41 0 0.75 0.34 0.75 0.75s-0.34 0.75-0.75 0.75z"/>
 <path d="m15.47 18.75h-4c-0.41 0-0.75-0.34-0.75-0.75s0.34-0.75 0.75-0.75h4c0.41 0 0.75 0.34 0.75 0.75s-0.34 0.75-0.75 0.75z"/>
 <path d="m16.47 14.75c-0.01 0-0.01 0 0 0l-5.01-0.05c-0.41 0-0.75-0.34-0.74-0.76 0-0.41 0.34-0.74 0.75-0.74h0.01l5 0.05c0.41 0 0.75 0.34 0.74 0.76-0.01 0.41-0.34 0.74-0.75 0.74z"/>
 <path d="m14.47 10.75h-3c-0.41 0-0.75-0.34-0.75-0.75s0.34-0.75 0.75-0.75h3c0.41 0 0.75 0.34 0.75 0.75s-0.34 0.75-0.75 0.75z"/>
 <path d="m5.4898 22.72c-0.91 0-1.77-0.56-2.36-1.54l-0.82-1.36c-0.3-0.5-0.53-1.32-0.53-1.9v-12.97c0-2.04 1.66-3.7 3.7-3.7 2.04 0 3.7 1.66 3.7 3.7v12.96c0 0.58-0.23 1.4-0.53 1.9l-0.82 1.36c-0.57 0.99-1.43 1.55-2.34 1.55zm0-19.97c-1.21 0-2.2 0.99-2.2 2.2v12.96c0 0.31 0.15 0.86 0.31 1.13l0.82 1.36c0.31 0.52 0.69999 0.81 1.07 0.81 0.37001 0 0.76-0.3 1.07-0.81l0.82001-1.36c0.16-0.27 0.31-0.82 0.31-1.13v-12.96c0-1.21-0.99-2.2-2.2-2.2z"/>
 <path d="m8.4398 7.75h-5.91c-0.41 0-0.75-0.34-0.75-0.75s0.34-0.75 0.75-0.75h5.91c0.40999 0 0.75 0.34 0.75 0.75s-0.34001 0.75-0.75 0.75z"/>
</svg>
